X: 47
T: 1. The De'il Amang the Tailors
R: reel
Z: John Chambers <jc@trillian.mit.edu>
M: C|
L: 1/8
% Q: 440
K: A
|: (3efg |\
"A" a2 eg a2 eg | "A" a2 ea fedc | "Bm" dfBf    dfBf | "Bm" dfBa "E" gabg |
"A" a2 eg a2 eg | "A" a2 ea fedc | "D" defd "A" ecBA | "E" E2 G2 "A" A2  :|
|: e2 |\
"A" ceAe "E" ceAe | "A" ceag fedc | "Bm" dfBf    dfBf | "Bm" dfba "E" gfed |
"A" ceAe "E" ceAe | "A" ceag fedc | "D" defe "A" ecBA | "E" E2 G2 "A" A2  :|
